X: 2663
T: Bank Of Ireland, The
R: reel
M: 4/4
K: Dmixolydian
AB|c2AB cABG|EGDG EGAB|cAAB cABG|Add^c dfed|
c2AB cABG|EGDG EGAB|c2AB cABG|Add^c d4||
K:D
f3d e3c|dfed cA A2|f3d ed (3Bcd|afge d2 (3Bcd|
eaag efge|dfed cAGB|Addc d3c|Adde fded||

